symbols/web/zoom_out/materialsymbolsoutlined/zoom_out_wght300gradN25_40px.svg

<svg xmlns="http://www.w3.org/2000/svg" height="40" width="40"><path d="M32.708 34.083 22.125 23.458q-1.25 1.125-2.896 1.688-1.646.562-3.354.562-4.208 0-7.125-2.896-2.917-2.895-2.917-7.062t2.896-7.062q2.896-2.896 7.063-2.896 4.208 0 7.104 2.896 2.896 2.895 2.896 7.062 0 1.75-.604 3.396-.605 1.646-1.646 2.937l10.625 10.542ZM15.833 23.708q3.334 0 5.646-2.312 2.313-2.313 2.313-5.646 0-3.333-2.313-5.646-2.312-2.312-5.646-2.312-3.375 0-5.687 2.312-2.313 2.313-2.313 5.646 0 3.333 2.334 5.646 2.333 2.312 5.666 2.312Zm-3.958-7v-2h7.875v2Z"/></svg>

<svg xmlns="http://www.w3.org/2000/svg" height="40" width="40"><path d="M32.708 34.083 22.125 23.458Q20.875 24.583 19.229 25.146Q17.583 25.708 15.875 25.708Q11.667 25.708 8.75 22.812Q5.833 19.917 5.833 15.75Q5.833 11.583 8.729 8.688Q11.625 5.792 15.792 5.792Q20 5.792 22.896 8.688Q25.792 11.583 25.792 15.75Q25.792 17.5 25.188 19.146Q24.583 20.792 23.542 22.083L34.167 32.625ZM15.833 23.708Q19.167 23.708 21.479 21.396Q23.792 19.083 23.792 15.75Q23.792 12.417 21.479 10.104Q19.167 7.792 15.833 7.792Q12.458 7.792 10.146 10.104Q7.833 12.417 7.833 15.75Q7.833 19.083 10.167 21.396Q12.5 23.708 15.833 23.708ZM11.875 16.708V14.708H19.75V16.708Z"/></svg>
